X:11
T:Can Wassel
M:3/4
L:1/8
C:Traditional
S:Adapted slightly from: Peter Kennedy #87 a.k.a. Wassail Song
K:D
A2\
|F2D2F2|AA3A2|BB B2d2|A4\
|A2|B2B2d2|A F3A2|G F3E2|
|F4|A2|GF3E2|D4F2\
|E4E2|FA3G2|F4|A2\
|B2c2d2|AF3z |GF3E2|D4|]

